X: 4118
T: The BUSH IN BLOSSOM
R: Reel.
%R: reel
B: James Kerr "Merry Melodies" v.4 p.15 #118
Z: 2016 John Chambers <jc:trillian.mit.edu>
M: C|
L: 1/8
K: G
(uBc) |\
d2(BG) AGEF | G2(Bd) efge |\
d2(BG) AGEF | GBAF G2 :|\
(Bd) |\
g2(dg) egdg | g2(bg) agab |
g2(dg) egdg | edef g2(ga) |\
b/b/b (ga) bgef | gage defa |\
b2(af) gfed | egfa g2 |]

%%sep 1 1 500
%%sep 1 1 500

